!!!!SEGMENT: pl-cz--ii-188--008_orllowski-michall--missa-ex-g-patrem.krn
!!!cenid: 17xx:1012
!!!COM: Orłowski, Michał
!!!COM-rismID: pe30020336
!!!CDT: ~1700-~1799
!!!CNT:
!!!OPR: Missa ex G
!!!OTL: Patrem
!!!OMV: 008
!!!PDT:
!!!AGN: Sacred; Mass
!!!SMS-siglum: PL-CZ
!!!SMS-shelfmark: II-188
!!!SMS-shelfwork: 001-008 M
!!!SMS-variant:
!!!SMS-altvar:
!!!NIFC-rismSourceID: 300000944
!!!NIFC-rismChildID: 300000944
!!!NIFC-islandoraID: pl-cz:32769
!!!URL-pdf-islandora: https://repozytorium.nifc.pl/islandora/object/pl-cz%3A32769/datastream/PDF/view
!!!URL-scan: https://polish.musicsources.pl/pl/lokalizacje/galeria/rekopisy/6776/1 @EN{Scan on Polish Music Sources Website} @PL{Skany w portalu Dziedzictwo Muzyki Polskiej w otwartym dostępie}
!!!ONB-nifc: UWAGA: części Mszy: Kyrie, Gloria, Laudamus, Domine deus, Qui tollis, Quoniam, Cum santo, Patrem, Et incarnatus, Et resurrexit, Sanctus, Benedictus, Agnus dei. UWAGA: w niektórych głosach części zapisane w innej kolejności
!!!AIN: 1 bass 2 cor 1 organ 2 soprn 2 violn
!!!key: G
**kern	**dynam	**kern	**dynam	**kern	**dynam	**kern	**text	**kern	**text	**kern	**text	**kern	**kern
*part8	*part8	*part7	*part7	*part6	*part6	*part5	*part5	*part4	*part4	*part3	*part3	*part2	*part1
*staff8	*	*staff7	*	*staff6	*	*staff5	*staff5	*staff4	*staff4	*staff3	*staff3	*staff2	*staff1
*	*	*	*	*	*	*group1	*	*group1	*	*group1	*	*	*
*I"Fundamento.	*	*I"Violino Secundo.	*	*I"Violino Primo.	*	*I"Baſso.	*	*I"Canto 2do:	*	*I"Canto 1mo:	*	*I"Cornu 2do. in G.	*I"Cornu 1mo. in G.
*I'org	*	*I'vl 2	*	*I'vl 1	*	*I'B	*	*I'S 2	*	*I'S 1	*	*I'cor 2 in G	*I'cor 1 in G
*Iorgan	*	*Ivioln	*	*Ivioln	*	*Ibass	*	*Isoprn	*	*Isoprn	*	*Icor	*Icor
*ICklav	*	*ICstr	*	*ICstr	*	*ICvox	*	*ICvox	*	*ICvox	*	*ICbras	*ICbras
*clefF4	*	*clefG2	*	*clefG2	*	*clefF4	*	*clefC1	*	*clefC1	*	*clefG2	*clefG2
*	*	*	*	*	*	*	*	*	*	*	*	*ITrd3c5	*ITrd3c5
*k[f#]	*	*k[f#]	*	*k[f#]	*	*k[f#]	*	*k[f#]	*	*k[f#]	*	*k[f#]	*k[f#]
*G:	*	*G:	*	*G:	*	*G:	*	*G:	*	*G:	*	*G:	*G:
*M3/4	*	*M3/4	*	*M3/4	*	*M3/4	*	*M3/4	*	*M3/4	*	*M3/4	*M3/4
*all\right	*	*all\right	*	*all\right	*	*all\right	*	*all\right	*	*all\right	*	*all\right	*all\right
=1	=1	=1	=1	=1	=1	=1	=1	=1	=1	=1	=1	=1	=1
!LO:TX:a:B:t=Moderato.	!	!LO:TX:a:B:t=moderato.	!	!LO:TX:a:B:t=Moderato.	!	!LO:TX:a:B:t=Moderato.	!	!LO:TX:a:B:t=Moderato.	!	!LO:TX:a:B:t=Moderato.	!	!LO:TX:a:B:t=Moderato.	!LO:TX:a:B:t=Moderato.
!LO:TX:t=P:problem=mixed beam	!	!	!	!	!	!	!	!	!	!	!	!	!
8GG/L	.	16g/LL	.	16g/LL	.	4G\	Pa-	4b\	Pa-	4gg\	Pa-	4g\	4b\
.	.	16G/	.	16G/	.	.	.	.	.	.	.	.	.
8G\	.	16A/	.	16A/	.	.	.	.	.	.	.	.	.
.	.	16B/JJ	.	16B/JJ	.	.	.	.	.	.	.	.	.
8GG/	.	16c/LL	.	16c/LL	.	8G\	-trem	8b\	-trem	8gg\	-trem	8g\L	8b\L
.	.	16d/	.	16d/	.	.	.	.	.	.	.	.	.
8G\J	.	16e/	.	16e/	.	8G\	o-	8b\	Om-	8gg\	Om-	8g\	8b\
.	.	16f#/JJ	.	16f#/JJ	.	.	.	.	.	.	.	.	.
!LO:TX:t=P:problem=mixed beam	!	!	!	!	!	!	!	!	!	!	!	!	!
8GG/L	.	16g/LL	.	16g/LL	.	8G\	-mni-	8b\	-ni-	8gg\	-ni-	8g\	8b\
.	.	16f#/	.	16f#/	.	.	.	.	.	.	.	.	.
8G\J	.	16g/	.	16g/	.	8G\	-po-	8b\	-po-	8gg\	-po-	8g\J	8b\J
.	.	16a/JJ	.	16a/JJ	.	.	.	.	.	.	.	.	.
=2	=2	=2	=2	=2	=2	=2	=2	=2	=2	=2	=2	=2	=2
*	*	*2\right	*	*	*	*	*	*	*	*	*	*	*
*	*	*tremolo	*	*	*	*2\right	*	*2\right	*	*2\right	*	*2\right	*2\right
!LO:TX:t=P:problem=mixed beam	!	!	!	!	!	!	!	!	!	!	!	!	!
8GG/L	.	16b\LL	.	16b\LL	.	2G\	-ten-	2b\	-ten-	2gg\	-ten-	2g\	2b\
.	.	16b\	.	16gg\	.	.	.	.	.	.	.	.	.
8G\	.	16b\	.	16gg\	.	.	.	.	.	.	.	.	.
.	.	16b\	.	16gg\JJ	.	.	.	.	.	.	.	.	.
*	*	*	*	*tremolo	*	*	*	*	*	*	*	*	*
8GG/	.	16b\	.	16gg\LL	.	.	.	.	.	.	.	.	.
.	.	16b\	.	16gg\	.	.	.	.	.	.	.	.	.
8G\J	.	16b\	.	16gg\	.	.	.	.	.	.	.	.	.
.	.	16b\JJ	.	16gg\JJ	.	.	.	.	.	.	.	.	.
8D/L	.	16ff#\LL	.	16aa\LL	.	4D\	.	4a\	.	4ff#\	.	4d/	4a\
.	.	16ff#\	.	16aa\	.	.	.	.	.	.	.	.	.
8D/J	.	16ff#\	.	16aa\	.	.	.	.	.	.	.	.	.
.	.	16ff#\JJ	.	16aa\JJ	.	.	.	.	.	.	.	.	.
=3	=3	=3	=3	=3	=3	=3	=3	=3	=3	=3	=3	=3	=3
*	*	*	*	*2\right	*	*	*	*	*	*	*	*	*
!LO:TX:t=P:problem=mixed beam	!	!	!	!	!	!	!	!	!	!	!	!	!
8GG/L	.	16gg\LL	.	16bb\LL	.	4G\	-tem	4b\	-tem	4gg\	-tem	4g\	4b\
.	.	16gg\	.	16bb\	.	.	.	.	.	.	.	.	.
8G\	.	16gg\	.	16bb\	.	.	.	.	.	.	.	.	.
.	.	16gg\	.	16bb\	.	.	.	.	.	.	.	.	.
8GG/	.	16gg\	.	16bb\	.	4G\	fa-	4b\	fac-	4gg\	fac-	4g\	4b\
.	.	16gg\	.	16bb\	.	.	.	.	.	.	.	.	.
8G\J	.	16gg\	.	16bb\	.	.	.	.	.	.	.	.	.
.	.	16gg\JJ	.	16bb\JJ	.	.	.	.	.	.	.	.	.
8D/L	.	16aa\LL	.	16ccc\LL	.	4D\	-cto-	4cc\	-to-	4aa\	-to-	4d/	4a\
.	.	16aa\	.	16ccc\	.	.	.	.	.	.	.	.	.
8D/J	.	16aa\	.	16ccc\	.	.	.	.	.	.	.	.	.
.	.	16aa\JJ	.	16ccc\JJ	.	.	.	.	.	.	.	.	.
*	*	*Xtremolo	*	*Xtremolo	*	*	*	*	*	*	*	*	*
=4	=4	=4	=4	=4	=4	=4	=4	=4	=4	=4	=4	=4	=4
4G\	.	8bb\L	.	8ddd\L	.	4G\	-rem	4b\	-rem	4gg\	-rem	4g\	4b\
.	.	16gg\L	.	16bb\L	.	.	.	.	.	.	.	.	.
.	.	16aa\JJ	.	16ccc\JJ	.	.	.	.	.	.	.	.	.
4r	.	8bb\L	.	8ddd\L	.	4r	.	4r	.	4r	.	4r	4r
.	.	16gg\L	.	16bb\L	.	.	.	.	.	.	.	.	.
.	.	16aa\JJ	.	16ccc\JJ	.	.	.	.	.	.	.	.	.
4r	.	8bb\L	.	8ddd\L	.	4r	.	4r	.	4r	.	4r	4r
.	.	16gg\L	.	16bb\L	.	.	.	.	.	.	.	.	.
.	.	16aa\JJ	.	16ccc\JJ	.	.	.	.	.	.	.	.	.
=5	=5	=5	=5	=5	=5	=5	=5	=5	=5	=5	=5	=5	=5
!	!	!	!	!	!	!	!	!	!	!LO:TX:a:t=1.	!	!	!
2.r	.	8bb\L	.	8ddd\L	.	2.r	.	2.r	.	2.r	.	2.r	2.r
.	.	16gg\L	.	16bb\L	.	.	.	.	.	.	.	.	.
.	.	16aa\JJ	.	16ccc\JJ	.	.	.	.	.	.	.	.	.
.	.	8bb\L	.	8ddd\L	.	.	.	.	.	.	.	.	.
.	.	16gg\L	.	16bb\L	.	.	.	.	.	.	.	.	.
.	.	16aa\JJ	.	16ccc\JJ	.	.	.	.	.	.	.	.	.
!	!	!	!	!LO:LB:g=original	!	!	!	!	!	!	!	!	!
.	.	8bb\L	.	8ddd\L	.	.	.	.	.	.	.	.	.
.	.	16gg\L	.	16bb\L	.	.	.	.	.	.	.	.	.
.	.	16aa\JJ	.	16ccc\JJ	.	.	.	.	.	.	.	.	.
!	!	!LO:LB:g=original	!	!	!	!	!	!	!	!	!	!	!
=6	=6	=6	=6	=6	=6	=6	=6	=6	=6	=6	=6	=6	=6
*	*	*tremolo	*	*tremolo	*	*	*	*	*	*	*	*	*
!	!	!	!	!	!	!	!LO:MO:mod=Cae-	!	!LO:MO:mod=Cae-	!	!LO:MO:mod=Cae-	!	!
8G\L	.	16bb\LL	.	16ddd\LL	.	4G\	Ce-	4b\	Ce-	4dd\	Ce-	4b\	4dd\
.	.	16bb\	.	16ddd\	.	.	.	.	.	.	.	.	.
8G\	.	16bb\	.	16ddd\	.	.	.	.	.	.	.	.	.
.	.	16bb\JJ	.	16ddd\JJ	.	.	.	.	.	.	.	.	.
8D\	.	16aa\LL	.	16ccc\LL	.	4D\	-li	4cc\	-li	4aa\	-li	4a\	4cc\
.	.	16aa\	.	16ccc\	.	.	.	.	.	.	.	.	.
8D\	.	16aa\	.	16ccc\	.	.	.	.	.	.	.	.	.
.	.	16aa\JJ	.	16ccc\JJ	.	.	.	.	.	.	.	.	.
8G\	.	16gg\LL	.	16bb\LL	.	4G\	et	4b\	et	4gg\	et	4g\	4b\
.	.	16gg\	.	16bb\	.	.	.	.	.	.	.	.	.
8G\J	.	16gg\	.	16bb\	.	.	.	.	.	.	.	.	.
.	.	16gg\JJ	.	16bb\JJ	.	.	.	.	.	.	.	.	.
*	*	*Xtremolo	*	*Xtremolo	*	*	*	*	*	*	*	*	*
=7	=7	=7	=7	=7	=7	=7	=7	=7	=7	=7	=7	=7	=7
4d\	.	4ggT\	.	4bbt\	.	4d\	ter-	4bt\	ter-	4gg\	ter-	4g\	4bt\
!	!	!	!	!	!	!	!LO:MO:mod=-rae	!	!LO:MO:mod=-rae	!	!LO:MO:mod=-rae	!	!
4D/	.	4ff#\	.	4aa\	.	4D/	-ra	4a\	-re	4ff#\	-re	4dT/	4a\
4r	.	4r	.	4r	.	4r	.	4r	.	4r	.	4r	4r
!LO:LB:g=original	!	!	!	!	!	!	!	!LO:LB:g=original	!	!	!	!	!
=8	=8	=8	=8	=8	=8	=8	=8	=8	=8	=8	=8	=8	=8
*	*	*tremolo	*	*tremolo	*	*	*	*	*	*	*	*	*
!LO:TX:t=P:problem=mixed beam	!	!	!	!	!	!	!	!	!	!LO:N:vis=4	!	!	!
8D/L	.	16d/LL	.	16d/LL	.	8D/	Vi-	8a\	Vi-	8ff#\	Vi-	8d/L	8a\L
.	.	16d/	.	16d/	.	.	.	.	.	.	.	.	.
8d\	.	16d/	.	16d/	.	8D/	-si-	8a\	-ſi-	8ff#\	-si-	8d/J	8a\J
.	.	16d/	.	16d/JJ	.	.	.	.	.	.	.	.	.
8D/	.	16d/	.	16f#/LL	.	4D/	-bi-	4a\	-bi-	4ff#\	-bi-	4d/	4a\
.	.	16d/	.	16f#/	.	.	.	.	.	.	.	.	.
8d\J	.	16d/	.	16f#/	.	.	.	.	.	.	.	.	.
.	.	16d/JJ	.	16f#/JJ	.	.	.	.	.	.	.	.	.
!LO:TX:t=P:problem=mixed beam	!	!	!	!	!	!LO:LB:g=original	!	!	!	!	!	!	!
8D/L	.	16f#/LL	.	16a/LL	.	8D/	-li-	8a\	-li-	8ff#\	-li-	8d/L	8a\L
.	.	16f#/	.	16a/	.	.	.	.	.	.	.	.	.
8d\J	.	16f#/	.	16a/	.	8D/	-um	8a\	-um	8ff#\	-um	8d/J	8a\J
.	.	16f#/JJ	.	16a/JJ	.	.	.	.	.	.	.	.	.
!	!	!	!	!	!	!	!	!	!	!LO:LB:g=original	!	!LO:LB:g=original	!
=9	=9	=9	=9	=9	=9	=9	=9	=9	=9	=9	=9	=9	=9
*2\right	*	*	*	*	*	*	*	*	*	*	*	*	*
*tremolo	*	*	*	*	*	*	*	*	*	*	*	*	*
!LO:TX:t=P:problem=mixed beam	!	!	!	!	!	!	!	!	!	!	!	!	!
8D/L	.	16f#/LL	.	16dd\LL	.	8.D/	Om-	8.a\	Om-	8.ff#\	Om-	8.d/L	8.a\L
.	.	16f#/	.	16dd\	.	.	.	.	.	.	.	.	.
8d\	.	16f#/	.	16dd\	.	.	.	.	.	.	.	.	.
.	.	16f#/JJ	.	16dd\JJ	.	16D/	-ni-	16a\	-ni-	16ff#\	-ni-	16d/Jk	16a\Jk
8D/	.	16dd\LL	.	16ff#\LL	.	4D/	-um	4a\	-um	4ff#\	-um	4d/	4a\
.	.	16dd\	.	16ff#\	.	.	.	.	.	.	.	.	.
8d\	.	16dd\	.	16ff#\	.	.	.	.	.	.	.	.	.
.	.	16dd\JJ	.	16ff#\JJ	.	.	.	.	.	.	.	.	.
8D/	.	16ff#\LL	.	16aa\LL	.	4r	.	4r	.	4r	.	4r	4r
.	.	16ff#\	.	16aa\	.	.	.	.	.	.	.	.	.
8d\J	.	16ff#\	.	16aa\	.	.	.	.	.	.	.	.	.
.	.	16ff#\JJ	.	16aa\JJ	.	.	.	.	.	.	.	.	.
!	!	!	!	!	!	!	!	!	!	!	!	!	!LO:LB:g=original
=10	=10	=10	=10	=10	=10	=10	=10	=10	=10	=10	=10	=10	=10
!LO:TX:t=P:problem=mixed beam	!	!	!	!	!	!	!	!	!	!	!	!	!
8GG/L	.	16d/LL	.	16d/LL	.	8G\	Et	8b\	Et	8gg\	Et	8g\L	8b\L
.	.	16d/	.	16d/	.	.	.	.	.	.	.	.	.
8G\	.	16d/	.	16d/	.	8G\	in-	8b\	in-	8gg\	in-	8g\J	8b\J
.	.	16d/	.	16d/JJ	.	.	.	.	.	.	.	.	.
8GG/	.	16d/	.	16g/LL	.	4G\	-Vi-	4b\	-vi-	4gg\	-vi-	4g\	4b\
.	.	16d/	.	16g/	.	.	.	.	.	.	.	.	.
8G\	.	16d/	.	16g/	.	.	.	.	.	.	.	.	.
.	.	16d/JJ	.	16g/JJ	.	.	.	.	.	.	.	.	.
8GG/	.	16g/LL	.	16b/LL	.	4G\	-si-	4b\	-si-	4gg\	-si-	4g\	4b\
.	.	16g/	.	16b/	.	.	.	.	.	.	.	.	.
8G\J	.	16g/	.	16b/	.	.	.	.	.	.	.	.	.
.	.	16g/JJ	.	16b/JJ	.	.	.	.	.	.	.	.	.
=11	=11	=11	=11	=11	=11	=11	=11	=11	=11	=11	=11	=11	=11
!LO:TX:t=P:problem=mixed beam	!	!	!	!	!	!	!	!	!	!	!	!	!
8GG/L	.	16b\LL	.	16dd\LL	.	8.G\	-bi-	8.b\	-bi-	8.gg\	-bi-	8.g\L	8.b\L
.	.	16b\	.	16dd\	.	.	.	.	.	.	.	.	.
8G\	.	16b\	.	16dd\	.	.	.	.	.	.	.	.	.
.	.	16b\JJ	.	16dd\JJ	.	16G\	-li-	16b\	-li-	16gg\	-li-	16g\Jk	16b\Jk
8GG/	.	16dd\LL	.	16gg\LL	.	4G\	-um	4b\	-um	4gg\	-um	4g\	4b\
.	.	16dd\	.	16gg\	.	.	.	.	.	.	.	.	.
8G\	.	16dd\	.	16gg\	.	.	.	.	.	.	.	.	.
.	.	16dd\JJ	.	16gg\JJ	.	.	.	.	.	.	.	.	.
8GG/	.	16gg\LL	.	16bb\LL	.	4r	.	4r	.	4r	.	4r	4r
.	.	16gg\	.	16bb\	.	.	.	.	.	.	.	.	.
8G\J	.	16gg\	.	16bb\	.	.	.	.	.	.	.	.	.
.	.	16gg\JJ	.	16bb\JJ	.	.	.	.	.	.	.	.	.
=12	=12	=12	=12	=12	=12	=12	=12	=12	=12	=12	=12	=12	=12
!LO:TX:t=P:problem=mixed beam	!	!	!	!	!	!	!	!	!	!	!	!	!
8D/L	.	16d/LL	.	16d/LL	.	8D/	Et	8a\	Et	8ff#\	Et	8d/L	8a\L
.	.	16d/	.	16d/	.	.	.	.	.	.	.	.	.
8d\	.	16d/	.	16d/	.	8D/	in	8a\	in	8ff#\	in	8d/J	8a\J
.	.	16d/	.	16d/JJ	.	.	.	.	.	.	.	.	.
!	!	!	!	!	!	!	!LO:MO:mod=u-	!	!LO:MO:mod=u-	!	!LO:MO:mod=u-	!	!
8D/	.	16d/	.	16f#/LL	.	4D/	un-	4a\	un-	4ff#\	un-	4d/	4a\
.	.	16d/	.	16f#/	.	.	.	.	.	.	.	.	.
8d\	.	16d/	.	16f#/	.	.	.	.	.	.	.	.	.
.	.	16d/JJ	.	16f#/JJ	.	.	.	.	.	.	.	.	.
8D/	.	16f#/LL	.	16a/LL	.	4D/	-num	4a\	-num	4ff#\	-num	4d/	4a\
.	.	16f#/	.	16a/	.	.	.	.	.	.	.	.	.
8d\J	.	16f#/	.	16a/	.	.	.	.	.	.	.	.	.
.	.	16f#/JJ	.	16a/JJ	.	.	.	.	.	.	.	.	.
=13	=13	=13	=13	=13	=13	=13	=13	=13	=13	=13	=13	=13	=13
!LO:TX:t=P:problem=mixed beam	!	!	!	!	!	!	!	!	!	!	!	!	!
8D/L	.	16f#/LL	.	16dd\LL	.	4.D/	Do-	4.a\	Do-	4.ff#\	Do-	4.d/	4.a\
.	.	16f#/	.	16dd\	.	.	.	.	.	.	.	.	.
8d\	.	16f#/	.	16dd\	.	.	.	.	.	.	.	.	.
.	.	16f#/JJ	.	16dd\JJ	.	.	.	.	.	.	.	.	.
8D/	.	16dd\LL	.	16ff#\LL	.	.	.	.	.	.	.	.	.
.	.	16dd\	.	16ff#\	.	.	.	.	.	.	.	.	.
8d\	.	16dd\	.	16ff#\	.	8D/	-mi-	8a\	-mi-	8ff#\	-mi-	8d/	8a\
.	.	16dd\JJ	.	16ff#\JJ	.	.	.	.	.	.	.	.	.
8D/	.	16ff#\LL	.	16aa\LL	.	4D/	-num	4a\	-n(um)	4ff#\	-num	4d/	4a\
.	.	16ff#\	.	16aa\	.	.	.	.	.	.	.	.	.
8d\J	.	16ff#\	.	16aa\	.	.	.	.	.	.	.	.	.
.	.	16ff#\JJ	.	16aa\JJ	.	.	.	.	.	.	.	.	.
!	!	!	!	!	!	!	!	!LO:LB:g=original	!	!	!	!	!
=14	=14	=14	=14	=14	=14	=14	=14	=14	=14	=14	=14	=14	=14
!LO:TX:t=P:problem=mixed beam	!	!	!	!	!	!	!	!	!	!	!	!	!
8GG/L	.	16d/LL	.	16d/LL	.	8G\	Je-	8b\	Je-	8gg\	Je-	8g\L	8b\L
.	.	16d/	.	16d/	.	.	.	.	.	.	.	.	.
8G\	.	16d/	.	16d/	.	8G\	-sum	8b\	-sum	8gg\	-sum	8g\J	8b\J
.	.	16d/	.	16d/JJ	.	.	.	.	.	.	.	.	.
8GG/	.	16d/	.	16g/LL	.	4G\	Chri-	4b\	Chris-	4gg\	Chris-	4g\	4b\
.	.	16d/	.	16g/	.	.	.	.	.	.	.	.	.
8G\	.	16d/	.	16g/	.	.	.	.	.	.	.	.	.
.	.	16d/JJ	.	16g/JJ	.	.	.	.	.	.	.	.	.
8GG/	.	16g/LL	.	16b/LL	.	4G\	-ſtum	4b\	-tum	4gg\	-tum	4g\	4b\
.	.	16g/	.	16b/	.	.	.	.	.	.	.	.	.
8G\J	.	16g/	.	16b/	.	.	.	.	.	.	.	.	.
.	.	16g/JJ	.	16b/JJ	.	.	.	.	.	.	.	.	.
!	!	!	!	!LO:LB:g=original	!	!LO:LB:g=original	!	!	!	!	!	!	!
=15	=15	=15	=15	=15	=15	=15	=15	=15	=15	=15	=15	=15	=15
!LO:TX:t=P:problem=mixed beam	!	!	!	!	!	!	!	!	!	!	!	!	!
8GG/L	.	16b\LL	.	16dd\LL	.	4.G\	Fi-	4.b\	Fi-	4.gg\	Fi-	4.g\	4.b\
.	.	16b\	.	16dd\	.	.	.	.	.	.	.	.	.
8G\	.	16b\	.	16dd\	.	.	.	.	.	.	.	.	.
.	.	16b\JJ	.	16dd\JJ	.	.	.	.	.	.	.	.	.
8GG/	.	16dd\LL	.	16gg\LL	.	.	.	.	.	.	.	.	.
.	.	16dd\	.	16gg\	.	.	.	.	.	.	.	.	.
8G\	.	16dd\	.	16gg\	.	8G\	-li-	8b\	-li-	8gg\	-li-	8g\	8b\
.	.	16dd\JJ	.	16gg\JJ	.	.	.	.	.	.	.	.	.
8GG/	.	16gg\LL	.	16bb\LL	.	4G\	-um	4b\	-um	4gg\	-um	4g\	4b\
.	.	16gg\	.	16bb\	.	.	.	.	.	.	.	.	.
8G\J	.	16gg\	.	16bb\	.	.	.	.	.	.	.	.	.
.	.	16gg\JJ	.	16bb\JJ	.	.	.	.	.	.	.	.	.
*Xtremolo	*	*	*	*	*	*	*	*	*	*	*	*	*
!	!	!LO:LB:g=original	!	!	!	!	!	!	!	!LO:LB:g=original	!	!	!
=16	=16	=16	=16	=16	=16	=16	=16	=16	=16	=16	=16	=16	=16
8G\L	.	16dd\LL	.	16bb\LL	.	4G\	De-	4b\	De-	4gg\	De-	4b\	4dd\
.	.	16dd\	.	16bb\	.	.	.	.	.	.	.	.	.
8G\	.	16dd\	.	16bb\	.	.	.	.	.	.	.	.	.
.	.	16dd\JJ	.	16bb\JJ	.	.	.	.	.	.	.	.	.
8D\	.	16cc\LL	.	16aa\LL	.	4D\	.	4a\	.	4ff#\	.	4a\	4cc\
.	.	16cc\	.	16aa\	.	.	.	.	.	.	.	.	.
8D\	.	16cc\	.	16aa\	.	.	.	.	.	.	.	.	.
.	.	16cc\JJ	.	16aa\JJ	.	.	.	.	.	.	.	.	.
8G\	.	16b\LL	.	16gg\LL	.	4G\	-i	4b\	-i	4gg\	-i	4g\	4b\
.	.	16b\	.	16gg\	.	.	.	.	.	.	.	.	.
8G\J	.	16b\	.	16gg\	.	.	.	.	.	.	.	.	.
.	.	16b\JJ	.	16gg\JJ	.	.	.	.	.	.	.	.	.
!LO:LB:g=original	!	!	!	!	!	!	!	!	!	!	!	!LO:PB:g=original	!
=17	=17	=17	=17	=17	=17	=17	=17	=17	=17	=17	=17	=17	=17
8c\L	.	16cc\LL	.	16aa\LL	.	8c\	u-	8a\	u-	8ff#\	u-	4a\	4cc\
.	.	16cc\	.	16aa\	.	.	.	.	.	.	.	.	.
8c\	.	16cc\	.	16aa\	.	8c\	-ni-	8a\	-ni-	8ff#\	-ni-	.	.
.	.	16cc\JJ	.	16aa\JJ	.	.	.	.	.	.	.	.	.
8d\	.	16b\LL	.	16gg\LL	.	4d\	-ge-	4b\	-ge-	4gg\	-ge-	4g\	4b\
.	.	16b\	.	16gg\	.	.	.	.	.	.	.	.	.
8d\J	.	16b\	.	16gg\	.	.	.	.	.	.	.	.	.
.	.	16b\JJ	.	16gg\JJ	.	.	.	.	.	.	.	.	.
8D/L	.	16a\LL	.	16ff#\LL	.	4D/	-ni-	4a\	-ni-	4ff#\	-ni-	4d/	4a\
.	.	16a\	.	16ff#\	.	.	.	.	.	.	.	.	.
8D/J	.	16a\	.	16ff#\	.	.	.	.	.	.	.	.	.
.	.	16a\JJ	.	16ff#\JJ	.	.	.	.	.	.	.	.	.
*	*	*Xtremolo	*	*Xtremolo	*	*	*	*	*	*	*	*	*
=18	=18	=18	=18	=18	=18	=18	=18	=18	=18	=18	=18	=18	=18
*tremolo	*	*	*	*	*	*	*	*	*	*	*	*	*
8G\L	.	16b\LL	.	16gg\LL	.	4G\	-tum	4b\	-tum	4gg\	-tum	4g\	4b\
.	.	16gg\	.	16bb\	.	.	.	.	.	.	.	.	.
8G\	.	16gg\	.	16bb\	.	.	.	.	.	.	.	.	.
.	.	16gg\JJ	.	16bb\JJ	.	.	.	.	.	.	.	.	.
*	*	*tremolo	*	*tremolo	*	*	*	*	*	*	*	*	*
8G\	.	16gg\LL	.	16bb\LL	.	4r	.	4r	.	4r	.	4r	4r
.	.	16gg\	.	16bb\	.	.	.	.	.	.	.	.	.
8G\	.	16gg\	.	16bb\	.	.	.	.	.	.	.	.	.
.	.	16gg\	.	16bb\	.	.	.	.	.	.	.	.	.
8G\	.	16gg\	.	16bb\	.	8G\	Et	8b\	Et	8gg\	Et	8g\L	8b\L
.	.	16gg\	.	16bb\	.	.	.	.	.	.	.	.	.
8G\J	.	16gg\	.	16bb\	.	8G\	ex	8b\	ex	8gg\	ex	8g\J	8b\J
.	.	16gg\JJ	.	16bb\JJ	.	.	.	.	.	.	.	.	.
=19	=19	=19	=19	=19	=19	=19	=19	=19	=19	=19	=19	=19	=19
!	!	!	!	!	!	!LO:SIC:v:s=2G\	!	!	!	!	!	!	!
8G\L	.	16gg\LL	.	16bb\LL	.	2F#\	Pa-	2b\	Pa-	2gg\	Pa-	2g\	2b\
.	.	16gg\	.	16bb\	.	.	.	.	.	.	.	.	.
8G\	.	16gg\	.	16bb\	.	.	.	.	.	.	.	.	.
.	.	16gg\	.	16bb\	.	.	.	.	.	.	.	.	.
8G\	.	16gg\	.	16bb\	.	.	.	.	.	.	.	.	.
.	.	16gg\	.	16bb\	.	.	.	.	.	.	.	.	.
8G\	.	16gg\	.	16bb\	.	.	.	.	.	.	.	.	.
.	.	16gg\	.	16bb\	.	.	.	.	.	.	.	.	.
8G\	.	16gg\	.	16bb\	.	4G\	-tre	4b\	-tre	4gg\	-tre	4g\	4b\
.	.	16gg\	.	16bb\	.	.	.	.	.	.	.	.	.
8G\J	.	16gg\	.	16bb\	.	.	.	.	.	.	.	.	.
.	.	16gg\JJ	.	16bb\JJ	.	.	.	.	.	.	.	.	.
=20	=20	=20	=20	=20	=20	=20	=20	=20	=20	=20	=20	=20	=20
8G\L	.	16gg\LL	.	16bb\LL	.	4G\	na-	4b\	na-	4gg\	na-	4g\	4b\
.	.	16gg\	.	16bb\	.	.	.	.	.	.	.	.	.
8G\	.	16gg\	.	16bb\	.	.	.	.	.	.	.	.	.
.	.	16gg\	.	16bb\	.	.	.	.	.	.	.	.	.
8G\	.	16gg\	.	16bb\	.	4G\	-tum	4b\	-tum	4gg\	-tum	4g\	4b\
.	.	16gg\	.	16bb\	.	.	.	.	.	.	.	.	.
8G\	.	16gg\	.	16bb\	.	.	.	.	.	.	.	.	.
.	.	16gg\	.	16bb\	.	.	.	.	.	.	.	.	.
8G\	.	16gg\	.	16bb\	.	4r	.	4r	.	4r	.	4r	4r
.	.	16gg\	.	16bb\	.	.	.	.	.	.	.	.	.
8G\J	.	16gg\	.	16bb\	.	.	.	.	.	.	.	.	.
.	.	16gg\JJ	.	16bb\JJ	.	.	.	.	.	.	.	.	.
!	!	!	!	!	!	!	!	!	!	!	!	!	!LO:LB:g=original
=21	=21	=21	=21	=21	=21	=21	=21	=21	=21	=21	=21	=21	=21
!LO:TX:t=P:problem=mixed beam	!	!	!	!	!	!	!	!	!	!	!	!	!
8D/L	.	16ff#\LL	.	16aa\LL	.	4d\	An-	4a\	An-	4ff#\	an-	4d/	4a\
.	.	16ff#\	.	16aa\	.	.	.	.	.	.	.	.	.
8d\	.	16ff#\	.	16aa\	.	.	.	.	.	.	.	.	.
.	.	16ff#\	.	16aa\	.	.	.	.	.	.	.	.	.
8D/	.	16ff#\	.	16aa\	.	4d\	-te	4a\	-te	4ff#\	-te	4d/	4a\
.	.	16ff#\	.	16aa\	.	.	.	.	.	.	.	.	.
8d\	.	16ff#\	.	16aa\	.	.	.	.	.	.	.	.	.
.	.	16ff#\	.	16aa\	.	.	.	.	.	.	.	.	.
8D/	.	16ff#\	.	16aa\	.	4d\	Om-	4a\	Om-	4ff#\	Om-	4d/	4a\
.	.	16ff#\	.	16aa\	.	.	.	.	.	.	.	.	.
8d\J	.	16ff#\	.	16aa\	.	.	.	.	.	.	.	.	.
.	.	16ff#\JJ	.	16aa\JJ	.	.	.	.	.	.	.	.	.
!	!	!	!	!	!	!	!	!LO:LB:g=original	!	!	!	!	!
=22	=22	=22	=22	=22	=22	=22	=22	=22	=22	=22	=22	=22	=22
!LO:TX:t=P:problem=mixed beam	!	!	!	!	!	!	!	!	!	!	!	!	!
8D/L	.	16ff#\LL	.	16aa\LL	.	2d\	-ni-	2a\	-ni-	2ff#\	-ni-	2d/	2a\
.	.	16ff#\	.	16aa\	.	.	.	.	.	.	.	.	.
8d\	.	16ff#\	.	16aa\	.	.	.	.	.	.	.	.	.
.	.	16ff#\	.	16aa\	.	.	.	.	.	.	.	.	.
8D/	.	16ff#\	.	16aa\	.	.	.	.	.	.	.	.	.
.	.	16ff#\	.	16aa\	.	.	.	.	.	.	.	.	.
8d\	.	16ff#\	.	16aa\	.	.	.	.	.	.	.	.	.
.	.	16ff#\	.	16aa\	.	.	.	.	.	.	.	.	.
8D/	.	16ff#\	.	16aa\	.	4d\	-a	4a\	-a	4ff#\	-a	4d/	4a\
.	.	16ff#\	.	16aa\	.	.	.	.	.	.	.	.	.
8d\J	.	16ff#\	.	16aa\	.	.	.	.	.	.	.	.	.
.	.	16ff#\JJ	.	16aa\JJ	.	.	.	.	.	.	.	.	.
=23	=23	=23	=23	=23	=23	=23	=23	=23	=23	=23	=23	=23	=23
!LO:TX:t=P:problem=mixed beam	!	!	!	!	!	!	!LO:MO:mod=Sae-	!	!LO:MO:mod=Sae-	!	!LO:MO:mod=Sae-	!	!
8D/L	.	16ff#\LL	.	16aa\LL	.	8.d\	Se-	8.a\	Se-	8.ff#\	Se-	8.d/L	8.a\L
.	.	16ff#\	.	16aa\	.	.	.	.	.	.	.	.	.
8d\	.	16ff#\	.	16aa\	.	.	.	.	.	.	.	.	.
.	.	16ff#\	.	16aa\	.	16D/	-cu-	16a\	-cu-	16ff#\	-cu-	16d/Jk	16a\Jk
8D/	.	16ff#\	.	16aa\	.	4D/	-la	4a\	-la	4ff#\	-la	4d/	4a\
.	.	16ff#\	.	16aa\	.	.	.	.	.	.	.	.	.
8d\	.	16ff#\	.	16aa\	.	.	.	.	.	.	.	.	.
.	.	16ff#\	.	16aa\	.	.	.	.	.	.	.	.	.
8D/	.	16ff#\	.	16aa\	.	4r	.	4r	.	4r	.	4r	4r
.	.	16ff#\	.	16aa\	.	.	.	.	.	.	.	.	.
8d\J	.	16ff#\	.	16aa\	.	.	.	.	.	.	.	.	.
.	.	16ff#\JJ	.	16aa\JJ	.	.	.	.	.	.	.	.	.
!	!	!	!	!	!	!LO:LB:g=original	!	!	!	!LO:LB:g=original	!	!	!
=24	=24	=24	=24	=24	=24	=24	=24	=24	=24	=24	=24	=24	=24
8G\L	.	16gg\LL	.	16bb\LL	.	4G\	De-	4b\	De-	4gg\	De-	4g\	4b\
.	.	16gg\	.	16bb\	.	.	.	.	.	.	.	.	.
8G\	.	16gg\	.	16bb\	.	.	.	.	.	.	.	.	.
.	.	16gg\	.	16bb\	.	.	.	.	.	.	.	.	.
8G\	.	16gg\	.	16bb\	.	4G\	-um	4b\	-um	4gg\	-um	4g\	4b\
.	.	16gg\	.	16bb\	.	.	.	.	.	.	.	.	.
8G\	.	16gg\	.	16bb\	.	.	.	.	.	.	.	.	.
.	.	16gg\	.	16bb\	.	.	.	.	.	.	.	.	.
8G\	.	16gg\	.	16bb\	.	4G\	de	4b\	de	4gg\	de	4g\	4b\
.	.	16gg\	.	16bb\	.	.	.	.	.	.	.	.	.
8G\J	.	16gg\	.	16bb\	.	.	.	.	.	.	.	.	.
.	.	16gg\JJ	.	16bb\JJ	.	.	.	.	.	.	.	.	.
=25	=25	=25	=25	=25	=25	=25	=25	=25	=25	=25	=25	=25	=25
8d\L	.	16ff#\LL	.	16aa\LL	.	2D\	De-	2a\	De-	2ff#\	De-	2d/	2a\
.	.	16ff#\	.	16aa\	.	.	.	.	.	.	.	.	.
8d\	.	16ff#\	.	16aa\	.	.	.	.	.	.	.	.	.
.	.	16ff#\	.	16aa\	.	.	.	.	.	.	.	.	.
8d\	.	16ff#\	.	16aa\	.	.	.	.	.	.	.	.	.
.	.	16ff#\	.	16aa\	.	.	.	.	.	.	.	.	.
8d\	.	16ff#\	.	16aa\	.	.	.	.	.	.	.	.	.
.	.	16ff#\	.	16aa\	.	.	.	.	.	.	.	.	.
!	!	!	!	!	!	!	!	!	!	!	!	!LO:SIC:v:s=4d/	!
8d\	.	16ff#\	.	16aa\	.	4D\	-o	4a\	-o	4ff#\	-o	4c/	4a\
.	.	16ff#\	.	16aa\	.	.	.	.	.	.	.	.	.
8d\J	.	16ff#\	.	16aa\	.	.	.	.	.	.	.	.	.
.	.	16ff#\JJ	.	16aa\JJ	.	.	.	.	.	.	.	.	.
=26	=26	=26	=26	=26	=26	=26	=26	=26	=26	=26	=26	=26	=26
8G\L	.	16gg\LL	.	16bb\LL	.	4G\	Lu-	4b\	Lu-	4gg\	Lu-	4g\	4b\
.	.	16gg\	.	16bb\	.	.	.	.	.	.	.	.	.
8G\	.	16gg\	.	16bb\	.	.	.	.	.	.	.	.	.
.	.	16gg\	.	16bb\	.	.	.	.	.	.	.	.	.
8G\	.	16gg\	.	16bb\	.	4G\	-men	4b\	-men	4gg\	-men	4g\	4b\
.	.	16gg\	.	16bb\	.	.	.	.	.	.	.	.	.
8G\	.	16gg\	.	16bb\	.	.	.	.	.	.	.	.	.
.	.	16gg\	.	16bb\	.	.	.	.	.	.	.	.	.
*	*	*	*	*	*	*	*	*	*	*	*	*custos:g	*
8G\	.	16gg\	.	16bb\	.	4G\	de	4b\	de	4gg\	de	4g\	4b\
.	.	16gg\	.	16bb\	.	.	.	.	.	.	.	.	.
8G\J	.	16gg\	.	16bb\	.	.	.	.	.	.	.	.	.
.	.	16gg\JJ	.	16bb\JJ	.	.	.	.	.	.	.	.	.
!	!	!	!	!	!	!	!	!	!	!	!	!LO:LB:g=original	!
=27	=27	=27	=27	=27	=27	=27	=27	=27	=27	=27	=27	=27	=27
8d\L	.	16ff#\LL	.	16aa\LL	.	4.D/	Lu-	4.a\	Lu-	4.ff#\	Lu-	4.d/	4.a\
.	.	16ff#\	.	16aa\	.	.	.	.	.	.	.	.	.
8d\	.	16ff#\	.	16aa\	.	.	.	.	.	.	.	.	.
.	.	16ff#\	.	16aa\	.	.	.	.	.	.	.	.	.
8d\	.	16ff#\	.	16aa\	.	.	.	.	.	.	.	.	.
.	.	16ff#\	.	16aa\	.	.	.	.	.	.	.	.	.
8d\J	.	16ff#\	.	16aa\	.	8D/	-mi-	8a\	-mi-	8ff#\	-mi-	8d/	8a\
.	.	16ff#\	.	16aa\	.	.	.	.	.	.	.	.	.
*Xtremolo	*	*	*	*	*	*	*	*	*	*	*	*	*
8D/L	.	16ff#\	.	16aa\	.	4D/	-ne	4a\	-ne	4ff#\	-ne	4d/	4a\
.	.	16ff#\	.	16aa\	.	.	.	.	.	.	.	.	.
8D/J	.	16ff#\	.	16aa\	.	.	.	.	.	.	.	.	.
.	.	16ff#\JJ	.	16aa\JJ	.	.	.	.	.	.	.	.	.
*	*	*Xtremolo	*	*Xtremolo	*	*	*	*	*	*	*	*	*
!LO:LB:g=original	!	!	!	!LO:LB:g=original	!	!	!	!	!	!	!	!	!
=28	=28	=28	=28	=28	=28	=28	=28	=28	=28	=28	=28	=28	=28
*tremolo	*	*	*	*	*	*	*	*	*	*	*	*	*
!	!	!LO:TX:t=P:problem=mixed beam	!	!	!	!	!	!	!	!	!	!	!
8G\L	.	16gg\LL	.	16bb\LL	.	2G\	De-	2b\	De-	2gg\	De-	2g\	2b\
.	.	16b/	.	16gg\	.	.	.	.	.	.	.	.	.
8G\	.	16b/	.	16gg\	.	.	.	.	.	.	.	.	.
.	.	16b/JJ	.	16gg\JJ	.	.	.	.	.	.	.	.	.
*	*	*tremolo	*	*tremolo	*	*	*	*	*	*	*	*	*
8G\	.	16b/LL	.	16gg\LL	.	.	.	.	.	.	.	.	.
.	.	16b/	.	16gg\	.	.	.	.	.	.	.	.	.
8G\J	.	16b/	.	16gg\	.	.	.	.	.	.	.	.	.
.	.	16b/JJ	.	16gg\JJ	.	.	.	.	.	.	.	.	.
*Xtremolo	*	*	*	*	*	*	*	*	*	*	*	*	*
8D/L	.	16a/LL	.	16ff#\LL	.	4D/	-um	4a\	-um	4ff#\	-um	4d/	4a\
.	.	16a/	.	16ff#\	.	.	.	.	.	.	.	.	.
8D/J	.	16a/	.	16ff#\	.	.	.	.	.	.	.	.	.
.	.	16a/JJ	.	16ff#\JJ	.	.	.	.	.	.	.	.	.
!	!	!LO:LB:g=original	!	!	!	!	!	!	!	!	!	!	!
=29	=29	=29	=29	=29	=29	=29	=29	=29	=29	=29	=29	=29	=29
*tremolo	*	*	*	*	*	*	*	*	*	*	*	*	*
8G\L	.	16b/LL	.	16gg\LL	.	4G\	ve-	4b\	Ve-	4gg\	Ve-	2g\	2b\
.	.	16b/	.	16gg\	.	.	.	.	.	.	.	.	.
8G\	.	16b/	.	16gg\	.	.	.	.	.	.	.	.	.
.	.	16b/	.	16gg\	.	.	.	.	.	.	.	.	.
8G\	.	16b/	.	16gg\	.	4G\	-rum	4b\	-rum	4gg\	-rum	.	.
.	.	16b/	.	16gg\	.	.	.	.	.	.	.	.	.
8G\J	.	16b/	.	16gg\	.	.	.	.	.	.	.	.	.
.	.	16b/JJ	.	16gg\JJ	.	.	.	.	.	.	.	.	.
*Xtremolo	*	*	*	*	*	*	*	*	*	*	*	*	*
8D/L	.	16a/LL	.	16ff#\LL	.	4D\	de	4a\	de	4ff#\	de	4d/	4a\
.	.	16a/	.	16ff#\	.	.	.	.	.	.	.	.	.
8D/J	.	16a/	.	16ff#\	.	.	.	.	.	.	.	.	.
.	.	16a/JJ	.	16ff#\JJ	.	.	.	.	.	.	.	.	.
*	*	*Xtremolo	*	*Xtremolo	*	*	*	*	*	*	*	*	*
=30	=30	=30	=30	=30	=30	=30	=30	=30	=30	=30	=30	=30	=30
!LO:TX:t=P:problem=mixed beam	!	!	!	!	!	!	!	!	!	!	!	!	!
8G\L	.	16b\LL	.	16gg\LL	.	8G\	De-	8b\	De-	8gg\	de-	4g\	4b\
.	.	16gg\	.	16bb\	.	.	.	.	.	.	.	.	.
8G\	.	16gg\	.	16bb\	.	8G\	-o	8b\	-o	8gg\	-o	.	.
.	.	16gg\JJ	.	16bb\JJ	.	.	.	.	.	.	.	.	.
*	*	*tremolo	*	*tremolo	*	*	*	*	*	*	*	*	*
!	!	!	!	!	!	!	!	!LO:LB:g=original	!	!	!	!	!
8d\	.	16gg\LL	.	16bb\LL	.	4d\	ve-	(4b\	ve-	4gg\	Ve-	4g\	4b\
.	.	16gg\	.	16bb\	.	.	.	.	.	.	.	.	.
8d\	.	16gg\	.	16bb\	.	.	.	.	.	.	.	.	.
.	.	16gg\JJ	.	16bb\JJ	.	.	.	.	.	.	.	.	.
!	!	!	!	!	!	!	!	!	!	!	!	!	!LO:SIC:v:s=4a
8D/	.	16ff#\LL	.	16aa\LL	.	4D/	.	4a\)	.	4ff#\	.	4d/	4b\
.	.	16ff#\	.	16aa\	.	.	.	.	.	.	.	.	.
8D/J	.	16ff#\	.	16aa\	.	.	.	.	.	.	.	.	.
.	.	16ff#\JJ	.	16aa\JJ	.	.	.	.	.	.	.	.	.
*	*	*Xtremolo	*	*Xtremolo	*	*	*	*	*	*	*	*	*
=31	=31	=31	=31	=31	=31	=31	=31	=31	=31	=31	=31	=31	=31
4G\	.	4gg 4b 4d/	.	4gg\	.	4G\	-ro	4b\	-ro	4gg\	-ro	4g\	4b\
8G\L	.	4r	.	4r	.	4r	.	4r	.	4r	.	4r	4r
8A\	.	.	.	.	.	.	.	.	.	.	.	.	.
8B\	.	4r	.	4r	.	4r	.	4r	.	4r	.	4r	4r
8c#X\J	.	.	.	.	.	.	.	.	.	.	.	.	.
!	!	!	!	!	!	!	!	!	!	!LO:LB:g=original	!	!	!LO:LB:g=original
=32	=32	=32	=32	=32	=32	=32	=32	=32	=32	=32	=32	=32	=32
*	*	*tremolo	*	*tremolo	*	*	*	*	*	*	*	*	*
!LO:TX:t=P:problem=mixed beam	!	!	!	!	!	!	!	!	!	!	!	!	!
8d\L	.	16f#/LL	.	16dd\LL	.	4.d\	ge-	4.a\	ge-	4.dd\	ge-	4d/	4a\
.	.	16f#/	.	16dd\	.	.	.	.	.	.	.	.	.
8D/J	.	16f#/	.	16dd\	.	.	.	.	.	.	.	.	.
.	.	16f#/	.	16dd\	.	.	.	.	.	.	.	.	.
*tremolo	*	*	*	*	*	*	*	*	*	*	*	*	*
8D/L	.	16f#/	.	16dd\	.	.	.	.	.	.	.	4d/	4a\
.	.	16f#/	.	16dd\	.	.	.	.	.	.	.	.	.
8D/	.	16f#/	.	16dd\	.	8D/	-ni-	8a\	-ni-	8dd\	-ni-	.	.
.	.	16f#/JJ	.	16dd\JJ	.	.	.	.	.	.	.	.	.
*	*	*Xtremolo	*	*Xtremolo	*	*	*	*	*	*	*	*	*
8D/	.	16f#/LL	.	16dd\LL	.	8D/	-tum	8a\	-tum	8dd\	-tum	4r	4r
.	.	16f#/	.	16dd\	.	.	.	.	.	.	.	.	.
8D/J	.	16dd/	.	16ff#\	.	8D/	non	8a\	non	8ff#\	non	.	.
.	.	16dd/JJ	.	16ff#\JJ	.	.	.	.	.	.	.	.	.
!	!	!	!	!	!	!LO:LB:g=original	!	!	!	!	!	!	!
=33	=33	=33	=33	=33	=33	=33	=33	=33	=33	=33	=33	=33	=33
*	*	*tremolo	*	*tremolo	*	*	*	*	*	*	*	*	*
8AA/L	.	16cc#X\LL	.	16ee\LL	.	4A\	fac-	4cc#X\	fa-	4ee\	Fac-	4a\	4a\
.	.	16cc#\	.	16ee\	.	.	.	.	.	.	.	.	.
8AA/	.	16cc#\	.	16ee\	.	.	.	.	.	.	.	.	.
.	.	16cc#\	.	16ee\	.	.	.	.	.	.	.	.	.
8AA/	.	16cc#\	.	16ee\	.	4A\	-tum	4cc#\	-ctum	4ee\	-tum	4a\	4a\
.	.	16cc#\	.	16ee\	.	.	.	.	.	.	.	.	.
8AA/	.	16cc#\	.	16ee\	.	.	.	.	.	.	.	.	.
.	.	16cc#\	.	16ee\	.	.	.	.	.	.	.	.	.
8AA/	.	16cc#\	.	16ee\	.	4r	.	4r	.	4r	.	4r	4r
.	.	16cc#\	.	16ee\	.	.	.	.	.	.	.	.	.
8AA/J	.	16cc#\	.	16ee\	.	.	.	.	.	.	.	.	.
.	.	16cc#\JJ	.	16ee\JJ	.	.	.	.	.	.	.	.	.
=34	=34	=34	=34	=34	=34	=34	=34	=34	=34	=34	=34	=34	=34
!	!	!LO:SIC:v:s=16cc#\LL	!	!	!	!	!	!LO:SIC:v:s=8cc#\	!	!	!	!	!
8A\L	.	16cc\LL	.	16ee\LL	.	8A\	Con-	8cc\	Con-	8ee\	Con-	4a\	4a\
!	!	!LO:SIC:v:s=16cc#\	!	!	!	!	!	!	!	!	!	!	!
.	.	16cc\	.	16ee\	.	.	.	.	.	.	.	.	.
!	!	!LO:SIC:v:s=16cc#\	!	!	!	!	!	!LO:SIC:v:s=8cc#\	!	!	!	!	!
8A\	.	16cc\	.	16ee\	.	8A\	-ſub-	8cc\	-sub-	8ee\	-ſub-	.	.
!	!	!LO:SIC:v:s=16cc#\	!	!	!	!	!	!	!	!	!	!	!
.	.	16cc\	.	16ee\	.	.	.	.	.	.	.	.	.
!	!	!LO:SIC:v:s=16cc#\	!	!	!	!	!	!LO:SIC:v:s=8cc#\	!	!	!	!	!
8A\	.	16cc\	.	16ee\	.	8A\	-ſtan-	8cc\	-ſtan-	8ee\	-ſtan-	4a\	4a\
!	!	!LO:SIC:v:s=16cc#\	!	!	!	!	!	!	!	!	!	!	!
.	.	16cc\	.	16ee\	.	.	.	.	.	.	.	.	.
!	!	!LO:SIC:v:s=16cc#\	!	!	!	!	!	!LO:SIC:v:s=8cc#\	!	!	!	!	!
8A\	.	16cc\	.	16ee\	.	8A\	-ti-	8cc\	-ti-	8ee\	-ti-	.	.
!	!	!LO:SIC:v:s=16cc#\JJ	!	!	!	!	!	!	!	!	!	!	!
.	.	16cc\JJ	.	16ee\JJ	.	.	.	.	.	.	.	.	.
*	*	*Xtremolo	*	*Xtremolo	*	*	*	*	*	*	*	*	*
!	!	!LO:SIC:v:s=16cc#\LL	!	!	!	!	!	!LO:SIC:v:s=8cc#\	!	!	!	!	!
8A\	.	16cc\LL	.	16ee\LL	.	8A\	-a-	8cc\	-a-	8ee\	-a-	4a\	4a\
!	!	!LO:SIC:v:s=16cc#\	!	!	!	!	!	!	!	!	!	!	!
.	.	16cc\	.	16ee\	.	.	.	.	.	.	.	.	.
8A\J	.	16ee\	.	16gg\	.	8A\	-lem	8ee\	-lem	8gg\	-lem	.	.
.	.	16ee\JJ	.	16gg\JJ	.	.	.	.	.	.	.	.	.
*Xtremolo	*	*	*	*	*	*	*	*	*	*	*	*	*
=35	=35	=35	=35	=35	=35	=35	=35	=35	=35	=35	=35	=35	=35
!LO:TX:t=P:problem=mixed beam	!	!	!	!	!	!	!	!	!	!	!	!	!
8d\L	.	4dd\	.	4ff#\	.	4d\	Pa-	4dd\	Pa-	4ff#\	Pa-	4d/	4a\
16D/L	.	.	.	.	.	.	.	.	.	.	.	.	.
16E/JJ	.	.	.	.	.	.	.	.	.	.	.	.	.
8F#\L	.	4d/	.	4dd\	.	4D/	-tri	4dd\	-tri	4ff#\	-tri	4d/	4a\
8E\	.	.	.	.	.	.	.	.	.	.	.	.	.
8F#\	.	4r	.	4r	.	4r	.	4r	.	4r	.	4r	4r
8D\J	.	.	.	.	.	.	.	.	.	.	.	.	.
!	!	!	!	!LO:LB:g=original	!	!	!	!	!	!	!	!	!
=36	=36	=36	=36	=36	=36	=36	=36	=36	=36	=36	=36	=36	=36
!	!LO:DY:t=pia.	!	!LO:DY:t=pia	!	!LO:DY:t=pia.	!	!	!LO:TX:a:i:t=Solo	!	!	!	!LO:TX:a:t=5	!
4G\	p	4b/	p	4gg\	p	0.r	.	2b\	Per	4gg\	Per	0.r	0.r
4B\	.	4b/	.	4dd\	.	.	.	.	.	4dd\	.	.	.
4G\	.	4b/	.	4dd\	.	.	.	4b\	quem	4dd\	quem	.	.
!	!	!	!	!	!	!	!	!LO:LB:g=original	!	!	!	!	!
=37	=37	=37	=37	=37	=37	=37	=37	=37	=37	=37	=37	=37	=37
4d\	.	8b/L	.	8dd\L	.	.	.	8b\L	Om-	(8dd\L	O-	.	.
.	.	8a/	.	8cc\	.	.	.	8a\J	.	8cc\J)	.	.	.
4D/	.	8a/	.	8cc\	.	.	.	8a\L	-ni-	(8cc\L	-mni-	.	.
.	.	8g/J	.	8b\J	.	.	.	8g\J	.	8b\J)	.	.	.
4G\	.	4g/	.	4b\	.	.	.	4g\	-a	4b\	-a	.	.
!LO:LB:g=original	!	!LO:LB:g=original	!	!	!	!	!	!	!	!	!	!	!
=38	=38	=38	=38	=38	=38	=38	=38	=38	=38	=38	=38	=38	=38
4G\	.	4b/	.	4gg\	.	.	.	2b\	Per	(4gg\	Per	.	.
4B\	.	4b/	.	4dd\	.	.	.	.	.	4dd\)	.	.	.
4G\	.	4b/	.	4dd\	.	.	.	4b\	quem	4dd\	quem	.	.
!	!	!	!	!	!	!	!	!	!	!LO:LB:g=original	!	!	!
=39	=39	=39	=39	=39	=39	=39	=39	=39	=39	=39	=39	=39	=39
4d\	.	8b/L	.	8dd\L	.	.	.	8b\L	Om-	8dd\L	Om-	.	.
.	.	8a/	.	8cc\	.	.	.	8a\J	.	8cc\J	.	.	.
4D/	.	8a/	.	8cc\	.	.	.	8a\L	-ni-	8cc\L	-ni-	.	.
.	.	8g/J	.	8cc\J	.	.	.	8g\J	.	8b\J	.	.	.
4G\	.	4g/	.	4b\	.	.	.	4g\	-a	4b\	-a	.	.
=40	=40	=40	=40	=40	=40	=40	=40	=40	=40	=40	=40	=40	=40
*	*	*	*	*Xtuplet	*	*	*	*	*	*Xtuplet	*	*	*
!	!	!LO:TUP:a:problem=klamra łukowa, łuczek zamiast numeru	!	!	!	!	!	!LO:TUP:a:problem=klamra łukowa, łuczek zamiast numeru	!	!LO:SIC:v:s=12ee\	!	!	!
4c\	.	12cc\L	.	12ee\L	.	2.r	.	12cc\L	Fac-	12ff#\L	Fa-	2.r	2.r
.	.	12b\	.	12dd\	.	.	.	12b\	.	12dd\	.	.	.
.	.	12a\J	.	12cc\J	.	.	.	12a\J	.	12cc\J	.	.	.
4d\	.	4g/	.	4b/	.	.	.	4g/	.	4b\	.	.	.
4D/	.	4f#/	.	4a/	.	.	.	4f#/	-ta	4aT\	-cta	.	.
!	!	!	!	!	!	!	!	!	!	!	!	!LO:LB:g=original	!
=41	=41	=41	=41	=41	=41	=41	=41	=41	=41	=41	=41	=41	=41
*tremolo	*	*	*	*	*	*	*	*	*	*	*	*	*
!	!LO:DY:t=for.	!	!	!	!	!	!	!	!	!	!	!	!
8G\L	f	4g/	.	4g/	.	4r	.	4g\	ſunt	4g\	ſunt	4r	4r
8G\	.	.	.	.	.	.	.	.	.	.	.	.	.
*	*	*tremolo	*	*tremolo	*	*	*	*	*	*	*	*	*
!	!	!	!LO:DY:t=for	!	!LO:DY:t=for.	!	!	!	!	!	!	!LO:N:vis=2.	!
8G\	.	16b/LL	f	16gg\LL	f	2G\	Qui	2b\	qui	2gg\	qui	2G/	2g\
.	.	16b/	.	16gg\	.	.	.	.	.	.	.	.	.
8G\	.	16b/	.	16gg\	.	.	.	.	.	.	.	.	.
.	.	16b/	.	16gg\	.	.	.	.	.	.	.	.	.
8G\	.	16b/	.	16gg\	.	.	.	.	.	.	.	.	.
.	.	16b/	.	16gg\	.	.	.	.	.	.	.	.	.
8G\J	.	16b/	.	16gg\	.	.	.	.	.	.	.	.	.
.	.	16b/JJ	.	16gg\JJ	.	.	.	.	.	.	.	.	.
=42	=42	=42	=42	=42	=42	=42	=42	=42	=42	=42	=42	=42	=42
8Fn\L	.	16b\LL	.	16gg\LL	.	4Fn\	p(ro)p-	4b\	Prop-	4gg\	p(ro)p-	2.G/	2.g\
.	.	16b\	.	16gg\	.	.	.	.	.	.	.	.	.
8F\	.	16b\	.	16gg\	.	.	.	.	.	.	.	.	.
.	.	16b\	.	16gg\	.	.	.	.	.	.	.	.	.
8F\	.	16b\	.	16gg\	.	4F\	-ter	4b\	-ter	4gg\	-ter	.	.
.	.	16b\	.	16gg\	.	.	.	.	.	.	.	.	.
8F\	.	16b\	.	16gg\	.	.	.	.	.	.	.	.	.
.	.	16b\	.	16gg\	.	.	.	.	.	.	.	.	.
8F\	.	16b\	.	16gg\	.	4F\	nos	4b\	nos	4gg\	nos	.	.
.	.	16b\	.	16gg\	.	.	.	.	.	.	.	.	.
8F\J	.	16b\	.	16gg\	.	.	.	.	.	.	.	.	.
.	.	16b\JJ	.	16gg\JJ	.	.	.	.	.	.	.	.	.
=43	=43	=43	=43	=43	=43	=43	=43	=43	=43	=43	=43	=43	=43
8E\L	.	16cc\LL	.	16gg\LL	.	2E\	ho-	2cc\	ho-	2gg\	ho-	2.G/	2.g\
.	.	16cc\	.	16gg\	.	.	.	.	.	.	.	.	.
8E\	.	16cc\	.	16gg\	.	.	.	.	.	.	.	.	.
.	.	16cc\	.	16gg\	.	.	.	.	.	.	.	.	.
8E\	.	16cc\	.	16gg\	.	.	.	.	.	.	.	.	.
.	.	16cc\	.	16gg\	.	.	.	.	.	.	.	.	.
8E\J	.	16cc\	.	16gg\	.	.	.	.	.	.	.	.	.
.	.	16cc\	.	16gg\	.	.	.	.	.	.	.	.	.
*Xtremolo	*	*	*	*	*	*	*	*	*	*	*	*	*
8D\L	.	16cc\	.	16gg\	.	4D\	-mi-	4cc\	-mi-	4gg\	-mi-	.	.
.	.	16cc\	.	16gg\	.	.	.	.	.	.	.	.	.
8D\J	.	16cc\	.	16gg\	.	.	.	.	.	.	.	.	.
.	.	16cc\JJ	.	16gg\JJ	.	.	.	.	.	.	.	.	.
=44	=44	=44	=44	=44	=44	=44	=44	=44	=44	=44	=44	=44	=44
*tremolo	*	*	*	*	*	*	*	*	*	*	*	*	*
8C/L	.	16cc\LL	.	16gg\LL	.	2C/	-nes	2cc\	-nes	2gg\	-nes	2G/	2g\
.	.	16cc\	.	16gg\	.	.	.	.	.	.	.	.	.
8C/	.	16cc\	.	16gg\	.	.	.	.	.	.	.	.	.
.	.	16cc\	.	16gg\	.	.	.	.	.	.	.	.	.
8C/	.	16cc\	.	16gg\	.	.	.	.	.	.	.	.	.
.	.	16cc\	.	16gg\	.	.	.	.	.	.	.	.	.
8C/	.	16cc\	.	16gg\	.	.	.	.	.	.	.	.	.
.	.	16cc\	.	16gg\	.	.	.	.	.	.	.	.	.
8C/	.	16cc\	.	16gg\	.	4r	.	4r	.	4r	.	4r	4r
.	.	16cc\	.	16gg\	.	.	.	.	.	.	.	.	.
8C/J	.	16cc\	.	16gg\	.	.	.	.	.	.	.	.	.
.	.	16cc\JJ	.	16gg\JJ	.	.	.	.	.	.	.	.	.
!	!	!	!	!	!	!LO:LB:g=original	!	!	!	!	!	!	!
=45	=45	=45	=45	=45	=45	=45	=45	=45	=45	=45	=45	=45	=45
8A\L	.	16dd\LL	.	16aa\LL	.	2.A\	Et	2.dd\	Et	2.aa\	et	2.a\	2.a\
.	.	16dd\	.	16aa\	.	.	.	.	.	.	.	.	.
8A\	.	16dd\	.	16aa\	.	.	.	.	.	.	.	.	.
.	.	16dd\	.	16aa\	.	.	.	.	.	.	.	.	.
8A\	.	16dd\	.	16aa\	.	.	.	.	.	.	.	.	.
.	.	16dd\	.	16aa\	.	.	.	.	.	.	.	.	.
8A\	.	16dd\	.	16aa\	.	.	.	.	.	.	.	.	.
.	.	16dd\	.	16aa\	.	.	.	.	.	.	.	.	.
8A\	.	16dd\	.	16aa\	.	.	.	.	.	.	.	.	.
.	.	16dd\	.	16aa\	.	.	.	.	.	.	.	.	.
8A\J	.	16dd\	.	16aa\	.	.	.	.	.	.	.	.	.
.	.	16dd\JJ	.	16aa\JJ	.	.	.	.	.	.	.	.	.
!	!	!	!	!	!	!	!	!LO:LB:g=original	!	!	!	!	!
=46	=46	=46	=46	=46	=46	=46	=46	=46	=46	=46	=46	=46	=46
8G\L	.	16dd\LL	.	16aa\LL	.	2G\	p(ro)p-	2dd\	Prop-	2aa\	p(ro)p-	2.a\	2.a\
.	.	16dd\	.	16aa\	.	.	.	.	.	.	.	.	.
8G\	.	16dd\	.	16aa\	.	.	.	.	.	.	.	.	.
.	.	16dd\	.	16aa\	.	.	.	.	.	.	.	.	.
8G\	.	16dd\	.	16aa\	.	.	.	.	.	.	.	.	.
.	.	16dd\	.	16aa\	.	.	.	.	.	.	.	.	.
8G\	.	16dd\	.	16aa\	.	.	.	.	.	.	.	.	.
.	.	16dd\	.	16aa\	.	.	.	.	.	.	.	.	.
8G\	.	16dd\	.	16aa\	.	4G\	-ter	4dd\	-ter	4aa\	-ter	.	.
.	.	16dd\	.	16aa\	.	.	.	.	.	.	.	.	.
8G\J	.	16dd\	.	16aa\	.	.	.	.	.	.	.	.	.
.	.	16dd\JJ	.	16aa\JJ	.	.	.	.	.	.	.	.	.
=47	=47	=47	=47	=47	=47	=47	=47	=47	=47	=47	=47	=47	=47
8F#X\L	.	16dd\LL	.	16aa\LL	.	4F#\	no-	4dd\	no-	4aa\	noſ-	4a\	4a\
.	.	16dd\	.	16aa\	.	.	.	.	.	.	.	.	.
8F#\	.	16dd\	.	16aa\	.	.	.	.	.	.	.	.	.
.	.	16dd\	.	16aa\	.	.	.	.	.	.	.	.	.
8F#\	.	16dd\	.	16aa\	.	4F#\	-ſtram	4dd\	-ſtra[m]	4aa\	-tram	4g\	4a\
.	.	16dd\	.	16aa\	.	.	.	.	.	.	.	.	.
8F#\J	.	16dd\	.	16aa\	.	.	.	.	.	.	.	.	.
.	.	16dd\	.	16aa\	.	.	.	.	.	.	.	.	.
*Xtremolo	*	*	*	*	*	*	*	*	*	*	*	*	*
8E\L	.	16dd\	.	16aa\	.	4F#\	ſa-	4dd\	Sa-	4aa\	ſa-	4a\	4a\
.	.	16dd\	.	16aa\	.	.	.	.	.	.	.	.	.
8E\J	.	16dd\	.	16aa\	.	.	.	.	.	.	.	.	.
.	.	16dd\JJ	.	16aa\JJ	.	.	.	.	.	.	.	.	.
!	!	!	!	!	!	!	!	!	!	!LO:LB:g=original	!	!	!LO:LB:g=original
=48	=48	=48	=48	=48	=48	=48	=48	=48	=48	=48	=48	=48	=48
*tremolo	*	*	*	*	*	*	*	*	*	*	*	*	*
8D\L	.	16dd\LL	.	16aa\LL	.	4D/	-lu-	4dd\	-lu-	4aa\	-lu-	4a\	4a\
.	.	16dd\	.	16aa\	.	.	.	.	.	.	.	.	.
8D\	.	16dd\	.	16aa\	.	.	.	.	.	.	.	.	.
.	.	16dd\	.	16aa\	.	.	.	.	.	.	.	.	.
8D\	.	16dd\	.	16aa\	.	4D/	-tem	4dd\	-tem	4aa\	-tem	4a\	4a\
.	.	16dd\	.	16aa\	.	.	.	.	.	.	.	.	.
8D\	.	16dd\	.	16aa\	.	.	.	.	.	.	.	.	.
.	.	16dd\	.	16aa\	.	.	.	.	.	.	.	.	.
8D\	.	16dd\	.	16aa\	.	4r	.	4r	.	4r	.	4r	4r
.	.	16dd\	.	16aa\	.	.	.	.	.	.	.	.	.
8D\J	.	16dd\	.	16aa\	.	.	.	.	.	.	.	.	.
.	.	16dd\JJ	.	16aa\JJ	.	.	.	.	.	.	.	.	.
*Xtremolo	*	*	*	*	*	*	*	*	*	*	*	*	*
!	!	!	!	!LO:LB:g=original	!	!	!	!	!	!	!	!	!
=49	=49	=49	=49	=49	=49	=49	=49	=49	=49	=49	=49	=49	=49
8G\L	.	16b/LL	.	16gg\LL	.	8G\L	De-	2.b\	De-	2.gg\	De-	2.g\	2.b\
.	.	16b/	.	16gg\	.	.	.	.	.	.	.	.	.
8F#\	.	16b/	.	16gg\	.	8F#\	.	.	.	.	.	.	.
.	.	16b/	.	16gg\	.	.	.	.	.	.	.	.	.
8G\	.	16b/	.	16gg\	.	8G\	.	.	.	.	.	.	.
.	.	16b/	.	16gg\	.	.	.	.	.	.	.	.	.
8F#\	.	16b/	.	16gg\	.	8F#\	.	.	.	.	.	.	.
.	.	16b/	.	16gg\	.	.	.	.	.	.	.	.	.
8E\	.	16b/	.	16gg\	.	8E\	.	.	.	.	.	.	.
.	.	16b/	.	16gg\	.	.	.	.	.	.	.	.	.
8D\J	.	16b/	.	16gg\	.	8D\J	.	.	.	.	.	.	.
.	.	16b/JJ	.	16gg\JJ	.	.	.	.	.	.	.	.	.
=50	=50	=50	=50	=50	=50	=50	=50	=50	=50	=50	=50	=50	=50
8E\L	.	16b/LL	.	16gg\LL	.	8E\L	-ſcen-	2b\	-ſcen-	2gg\	-ſcen-	2.g\	2.b\
.	.	16b/	.	16gg\	.	.	.	.	.	.	.	.	.
8D\	.	16b/	.	16gg\	.	8D\	.	.	.	.	.	.	.
.	.	16b/	.	16gg\	.	.	.	.	.	.	.	.	.
8E\	.	16b/	.	16gg\	.	8E\	.	.	.	.	.	.	.
.	.	16b/	.	16gg\	.	.	.	.	.	.	.	.	.
8D\	.	16b/	.	16gg\	.	8D\	.	.	.	.	.	.	.
.	.	16b/	.	16gg\	.	.	.	.	.	.	.	.	.
8C\	.	16b/	.	16gg\	.	8C\	.	4b\	-dit	4gg\	-dit	.	.
.	.	16b/	.	16gg\	.	.	.	.	.	.	.	.	.
8BB\J	.	16b/	.	16gg\	.	8BB\J	-dit	.	.	.	.	.	.
.	.	16b/JJ	.	16gg\JJ	.	.	.	.	.	.	.	.	.
!LO:LB:g=original	!	!LO:LB:g=original	!	!	!	!	!	!	!	!	!	!	!
=51	=51	=51	=51	=51	=51	=51	=51	=51	=51	=51	=51	=51	=51
8C/L	.	16b/LL	.	16gg\LL	.	8C/L	de	4b\	De	4gg\	de	2g\	2b\
.	.	16b/	.	16gg\	.	.	.	.	.	.	.	.	.
8BB/	.	16b/	.	16gg\	.	8BB/	.	.	.	.	.	.	.
.	.	16b/	.	16gg\	.	.	.	.	.	.	.	.	.
!	!	!	!	!	!	!	!	!	!LO:MO:mod=Cae-	!	!LO:MO:mod=Cae-	!	!
8C/	.	16b/	.	16gg\	.	8C/	.	4b\	Ce-	4gg\	Ce-	.	.
.	.	16b/	.	16gg\	.	.	.	.	.	.	.	.	.
8AA/	.	16b/	.	16gg\	.	8AA/	.	.	.	.	.	.	.
.	.	16b/JJ	.	16gg\JJ	.	.	.	.	.	.	.	.	.
8D/	.	16a/LL	.	16ff#\LL	.	8D/	.	4a\	.	4ff#\	.	4d/	4a\
.	.	16a/	.	16ff#\	.	.	.	.	.	.	.	.	.
!	!	!	!	!	!	!	!LO:MO:mod=Cae-	!	!	!	!	!	!
8DD/J	.	16a/	.	16ff#\	.	8D/J	Ce-	.	.	.	.	.	.
.	.	16a/JJ	.	16ff#\JJ	.	.	.	.	.	.	.	.	.
!	!	!	!	!	!	!	!	!	!	!	!	!LO:LB:g=original	!
=52	=52	=52	=52	=52	=52	=52	=52	=52	=52	=52	=52	=52	=52
!LO:TX:t=P:problem=mixed beam	!	!	!	!	!	!	!	!	!	!	!	!	!
8GG/L	.	16b/LL	.	16gg\LL	.	8G\L	-lis	4b\	-lis	4gg\	-lis	2.g\	2.b\
.	.	16b/	.	16gg\	.	.	.	.	.	.	.	.	.
16G\L	.	16b/	.	16gg\	.	8F#\	.	.	.	.	.	.	.
16F#\JJ	.	16b/	.	16gg\	.	.	.	.	.	.	.	.	.
8G\L	.	16b/	.	16gg\	.	8G\	de-	2b\	De-	2gg\	De-	.	.
.	.	16b/	.	16gg\	.	.	.	.	.	.	.	.	.
8F#\	.	16b/	.	16gg\	.	8F#\	.	.	.	.	.	.	.
.	.	16b/	.	16gg\	.	.	.	.	.	.	.	.	.
8E\	.	16b/	.	16gg\	.	8E\	.	.	.	.	.	.	.
.	.	16b/	.	16gg\	.	.	.	.	.	.	.	.	.
8D\J	.	16b/	.	16gg\	.	8D\J	.	.	.	.	.	.	.
.	.	16b/JJ	.	16gg\JJ	.	.	.	.	.	.	.	.	.
=53	=53	=53	=53	=53	=53	=53	=53	=53	=53	=53	=53	=53	=53
8E/L	.	16b/LL	.	16gg\LL	.	8E\L	-ſcen-	2b\	-ſcen-	2gg\	-ſcen-	2.g\	2.b\
.	.	16b/	.	16gg\	.	.	.	.	.	.	.	.	.
8D/	.	16b/	.	16gg\	.	8D\	.	.	.	.	.	.	.
.	.	16b/	.	16gg\	.	.	.	.	.	.	.	.	.
8E/	.	16b/	.	16gg\	.	8E\	.	.	.	.	.	.	.
.	.	16b/	.	16gg\	.	.	.	.	.	.	.	.	.
8D/	.	16b/	.	16gg\	.	8D\J	.	.	.	.	.	.	.
.	.	16b/	.	16gg\	.	.	.	.	.	.	.	.	.
!	!	!	!	!	!	!LO:LB:g=original	!	!	!	!	!	!	!
8C/	.	16b/	.	16gg\	.	8C/L	dit	4b\	-dit	4gg\	-dit	.	.
.	.	16b/	.	16gg\	.	.	.	.	.	.	.	.	.
8BB/J	.	16b/	.	16gg\	.	8BB/J	.	.	.	.	.	.	.
.	.	16b/JJ	.	16gg\JJ	.	.	.	.	.	.	.	.	.
=54	=54	=54	=54	=54	=54	=54	=54	=54	=54	=54	=54	=54	=54
8C/L	.	16b/LL	.	16gg\LL	.	8C/L	-De	4b\	De	4gg\	de	2g\	2b\
.	.	16b/	.	16gg\	.	.	.	.	.	.	.	.	.
8BB/	.	16b/	.	16gg\	.	8BB/	.	.	.	.	.	.	.
.	.	16b/	.	16gg\	.	.	.	.	.	.	.	.	.
!	!	!	!	!	!	!	!	!	!LO:MO:mod=Cae-	!	!LO:MO:mod=Cae-	!	!
8C/	.	16b/	.	16gg\	.	8C/	.	4b\	Ce-	4gg\	Ce-	.	.
.	.	16b/	.	16gg\	.	.	.	.	.	.	.	.	.
8AA/	.	16b/	.	16gg\	.	8AA/J	.	.	.	.	.	.	.
.	.	16b/JJ	.	16gg\JJ	.	.	.	.	.	.	.	.	.
!	!	!	!	!	!	!	!LO:MO:mod=Cae-	!	!	!	!	!	!
8D/	.	16a/LL	.	16ff#\LL	.	4D/	Ce-	4a\	.	4ff#\	.	4d/	4a\
.	.	16a/	.	16ff#\	.	.	.	.	.	.	.	.	.
8DD/J	.	16a/	.	16ff#\	.	.	.	.	.	.	.	.	.
.	.	16a/JJ	.	16ff#\JJ	.	.	.	.	.	.	.	.	.
*	*	*Xtremolo	*	*Xtremolo	*	*	*	*	*	*	*	*	*
=55	=55	=55	=55	=55	=55	=55	=55	=55	=55	=55	=55	=55	=55
!LO:TX:t=P:problem=mixed beam	!	!	!	!	!	!	!	!	!	!	!	!	!
8GG/L	.	4b 4d/	.	4gg\	.	4GG/	-lis	4b\	-lis	4gg\	-lis	4g\	4b\
8G\	.	.	.	.	.	.	.	.	.	.	.	.	.
8D\	.	4b 4d/	.	4gg 4b 4d/	.	4r	.	4r	.	4r	.	4g\	4b\
8G\J	.	.	.	.	.	.	.	.	.	.	.	.	.
8BB/L	.	4b 4d/	.	4gg 4b 4d/	.	4r	.	4r	.	4r	.	4g\	4b\
8D/J	.	.	.	.	.	.	.	.	.	.	.	.	.
=56	=56	=56	=56	=56	=56	=56	=56	=56	=56	=56	=56	=56	=56
!	!	!	!	!	!	!	!	!LO:TX:a:t=1.	!	!	!	!	!
2GG/	.	2b 2d/	.	2gg 2b 2d/	.	2.r	.	2.r	.	2.r	.	2g\	2b\
4r	.	4r	.	4r	.	.	.	.	.	.	.	4r	4r
==	==	==	==	==	==	==	==	==	==	==	==	==	==
*-	*-	*-	*-	*-	*-	*-	*-	*-	*-	*-	*-	*-	*-
!!!system-decoration: [(s1,s2)][(g1)][(s6,s7)]<s8>
!!!ENC: Kamil Watkowski
!!!END: 2020-08-21
!!!ENC: Andrzej Kubiczek
!!!END: 2021-11-06
!!!YEC: Copyright 2022 Narodowy Instytut Fryderyka Chopina (https://polishscores.org)
!!!YEM: License CC-BY-4.0 (https://creativecommons.org/licenses/by/4.0)
